src/img/rowing.svg

<svg xmlns="http://www.w3.org/2000/svg" width="24" height="24" viewBox="0 0 24 24"><path d="M8.5 14.5L4 19l1.5 1.5L9 17h2l-2.5-2.5" fill="#5b7da2"/><path d="M15 1a2 2 0 0 0-2 2 2 2 0 0 0 2 2 2 2 0 0 0 2-2 2 2 0 0 0-2-2" fill="#e3e3e3"/><path d="M21 21l-3 3-3-3v-1.5l-7.09-7.09c-.31.05-.61.09-.91.09v-2.18c1.66.03 3.61-.87 4.67-2.04l1.4-1.55c.19-.23.43-.38.69-.5.29-.14.62-.23.96-.23h.03C16 6 17 7 17 8.26V14c0 .85-.35 1.62-.92 2.17l-3.58-3.58v-2.27c-.63.52-1.43 1.02-2.29 1.39L16.5 18H18l3 3z" fill="#916f6f"/></svg>

<?xml version="1.0" encoding="UTF-8" standalone="no"?>
<svg
   xmlns:dc="http://purl.org/dc/elements/1.1/"
   xmlns:cc="http://creativecommons.org/ns#"
   xmlns:rdf="http://www.w3.org/1999/02/22-rdf-syntax-ns#"
   xmlns:svg="http://www.w3.org/2000/svg"
   xmlns="http://www.w3.org/2000/svg"
   xmlns:sodipodi="http://sodipodi.sourceforge.net/DTD/sodipodi-0.dtd"
   xmlns:inkscape="http://www.inkscape.org/namespaces/inkscape"
   version="1.1"
   width="24"
   height="24"
   viewBox="0 0 24 24"
   id="svg2"
   inkscape:version="0.91 r13725"
   sodipodi:docname="rowing.svg">
  <metadata
     id="metadata10">
    <rdf:RDF>
      <cc:Work
         rdf:about="">
        <dc:format>image/svg+xml</dc:format>
        <dc:type
           rdf:resource="http://purl.org/dc/dcmitype/StillImage" />
      </cc:Work>
    </rdf:RDF>
  </metadata>
  <defs
     id="defs8" />
  <sodipodi:namedview
     pagecolor="#ffffff"
     bordercolor="#666666"
     borderopacity="1"
     objecttolerance="10"
     gridtolerance="10"
     guidetolerance="10"
     inkscape:pageopacity="0"
     inkscape:pageshadow="2"
     inkscape:window-width="1920"
     inkscape:window-height="1027"
     id="namedview6"
     showgrid="false"
     inkscape:zoom="19.666667"
     inkscape:cx="3.449501"
     inkscape:cy="9.2856262"
     inkscape:window-x="-8"
     inkscape:window-y="-8"
     inkscape:window-maximized="1"
     inkscape:current-layer="svg2" />
  <path
     d="M 8.5,14.5 4,19 5.5,20.5 9,17 11,17 8.5,14.5"
     id="path3342"
     style="fill:#5b7da2;fill-opacity:1" />
  <path
     d="M 15,1 A 2,2 0 0 0 13,3 2,2 0 0 0 15,5 2,2 0 0 0 17,3 2,2 0 0 0 15,1"
     id="path3340"
     style="fill:#e3e3e3;fill-opacity:1" />
  <path
     d="m 21,21 -3,3 -3,-3 0,-1.5 -7.09,-7.09 C 7.6,12.46 7.3,12.5 7,12.5 l 0,-2.18 c 1.66,0.03 3.61,-0.87 4.67,-2.04 l 1.4,-1.55 C 13.26,6.5 13.5,6.35 13.76,6.23 14.05,6.09 14.38,6 14.72,6 l 0.03,0 C 16,6 17,7 17,8.26 L 17,14 c 0,0.85 -0.35,1.62 -0.92,2.17 l -3.58,-3.58 0,-2.27 c -0.63,0.52 -1.43,1.02 -2.29,1.39 l 6.29,6.29 1.5,0 3,3 z"
     id="path4"
     style="fill:#916f6f;fill-opacity:1" />
</svg>
